X:1
T:Title
%%score { ( 1 4 ) | ( 2 3 ) }
L:1/8
Q:1/4=100
M:3/4
K:D
V:1 treble nm="Grand Piano"
V:4 treble 
V:2 bass 
V:3 bass 
V:1
 [A,F]2 [F,D]2 [B,G]2 | [A,F]4[K:bass] [F,D]2 | [G,E]2[K:treble] C2 F2 | [G,E]4 [F,D]2 | F4 z2 | %5
w: Charles~Edward~Prior * *|||||
 [B,G]4 [B,G]2 | ^G4 z2 | A4 z2 | [DF]4 [CA]2 | G4 z2 | [A,F]2[K:bass] [G,E]2 [F,D]2 | F4 z2 | %12
w: |||||||
 G4 z2 | [A,F]4[K:bass] [G,E]2 | E2 z2 z2 | [F,D]6 | [G,CE]4 [A,CF]2 | [G,CE]4 [A,CF]2 | %18
w: ||||||
 F,2 F2 B2 | A4 F2 | [G,CE]4 [A,CF]2 | E2 z2 z2 | [CA]4 [A,CG]2 | [A,DF]6 | [Fd]4 [FA]2 | %25
w: |||||||
 [GB]4 [Ge]2 | [^Ge]4 [EGd]2 | [EAc]4 [CGA]2 | F2- [Fd]2 D2 | B4 z2 | A2 F2 [CE]2 | D6 |] %32
w: |||||||
V:2
 z2 D,2 D,2 | z2 D,2 D,2 | z2 E,2 A,2 | z2 D,2 D,2 | z2 D,2 D,2 | z2 G,2 G,2 | z2 E,2 E,2 | %7
 z2 z2 G2 | z2 D,2 D,2 | z2 D,2 D,2 | z2 D,2 D,2 | z2 A,,2 A,,2 | z2 A,,2 A,,2 | z2 A,,2 A,,2 | %14
 z2 A,,2 A,,2 | z2 D,4 | A,,4 A,,2 | A,,4 A,,2 | z2 A,2 [D,G,D]2 | [D,F,D]4 [D,A,D]2 | A,,4 A,,2 | %21
 z2[K:treble] B2[K:bass] [A,,F,]2 | E,2 A,2 A,,2 | D,6 | [D,A,]4 [D,D]2 | [G,D]4 [G,B,]2 | %26
 [E,B,]4 E,2 | A,4 A,2 | z2 A,2 [F,A,]2 | D2 D2 [^G,D=F]2 | [A,DF]2 [A,D]2[K:bass] [A,,G,]2 | %31
 [D,F,]6 |] %32
V:3
 D,,6 | D,,6 | [A,,,A,,]6 | D,,6 | D,,6 | G,,6 | E,,6 | A,,6 | D,,6 | D,,6 | D,,6 | A,,,6 | A,,,6 | %13
 A,,,6 | A,,,6 | D,,6 | x6 | x6 | D,4 z2 | x6 | x6 | A,,4[K:treble][K:bass] z2 | A,,4 z2 | x6 | %24
 x6 | x6 | x6 | x6 | D,4 z2 | G,4 z2 | x4[K:bass] x2 | x6 |] %32
V:4
 x6 | x4[K:bass] x2 | x2[K:treble] x4 | x6 | A,2 D2 [CA]2 | x6 | B,2 E2 [D^G]2 | [A,C]6 | x6 | %9
 B,2 z2 [A,F]2 | x2[K:bass] x4 | A,2 D2 [CE]2 | C2 B,2 [A,F]2 | x4[K:bass] x2 | %14
 G,2- [G,B,]2 [G,C]2 | x6 | x6 | x6 | D4 z2 | x6 | x6 | [G,C]4 [DA]2 | x6 | x6 | x6 | x6 | x6 | %27
 x6 | [DA]2 z2 z2 | z B, E2 B2 | x6 | x6 |] %32

